X:1
T:Sing We Now of Joy and Gladness
T:Sing We Now of Joy and Gladness
T:W. Gilbert
T:W. Gilbert, before 1917
T:Public Domain Courtesy of the Cyber Hymnal™
C:W. Gilbert
Z:Public Domain
Z:Courtesy of the Cyber Hymnal™
%%score ( 1 2 ) ( 3 4 )
L:1/8
Q:1/4=100
M:6/8
K:F
V:1 treble 
V:2 treble 
V:3 bass 
V:4 bass 
V:1
 [FA]2 [Ad] [Gd]2 [Gc] | [Fc]2 [FB] [GB]2 [FA] | [CF]2 [CF] [CE]2 [CF] | [CG]3 [DG]3 | [EG]6 | %5
w: 1.~Sing we now of|joy and glad- ness,|Christ our king come|down to|earth,|
w: 2.~Haste we, then, this|birth- day morn- ing,|To the Beth- lehem|cat- tle|shed;|
w: 3.~Of- fer we in|plen- teous mea- sure|Gold and gem and|cost- ly|spice;|
 [FA]2 [Ad] [Gd]2 [Gc] | [G=B]2 [Gf] [Gf]2 [Ge] |!f! [Ge]2 [Gd] [Gc]2 [Gc] | [FA]3 [F=B]3 | [Ec]6 | %10
w: Frees man- kind from|pain and sad- ness|Hail th’in- car- nate|Sav- ior’s|birth.|
w: Heed we not, tho’|scant a- dorn- ing|Deck the low- ly|man- ger|bed;|
w: If our hearts at-|tend our trea- sure|He’ll ac- cept the|sac- ri-|fice:|
 [FA]2 [FA] [EG]2 F | [Fc]2 [^Fc] [Gc]2 [GB] |!p! G3 [FA]3 | [Gc-]3 c2 B | [EA]6 | %15
w: List, an- gel- ic|strains are stream- ing|Through the|Or- * ient|skies;|
w: Though man’s flesh- ly|form He wear- eth,|In His|birth- * place|bare,|
w: If to Him our|life be giv- en,|Raised from|earth * our|eyes,|
 [FA]2 [Fc] [Fd]2 [Fd] | [Gg]2 [Gf] [Gf]2 [Ge] |!f! [Ff]2 [Ad] [Gc]2 [FA] | [FG]3 [EG]3 | F6 |] %20
w: Look, ce- les- tial|light is beam- ing|On the won- dering|shep- herds’|eyes.|
w: He th’e- ter- nal|king- dom shar- eth;|Christ Him- self is|cra- dled|there.|
w: He will grant us|rest in Hea- ven,|In His rest— in|par- a-|dise.|
V:2
 x6 | x6 | x6 | x6 | x6 | x6 | x6 | x6 | x6 | x6 | x5 F | x6 | G3 x3 | x3 F3 | x6 | x6 | x6 | x6 | %18
 x6 | F6 |] %20
V:3
 [F,C]2 [F,C] [E,C]2 [E,C] | [D,D]2 [D,D] [E,C]2 [F,C] | [F,A,]2 [F,A,] [G,B,]2 [F,A,] | %3
 [E,G,]3 [D,=B,]3 | [C,C]6 | [F,C]2 [F,C] [E,C]2 [E,C] | [D,G,]2 [D,=B,] [C,C]2 [C,C] | %7
!f! [C,C]2 [=B,,D] [C,E]2 [C,E] | [F,F]3 [G,D]3 | [C,C]6 | [F,C]2 [A,C] [B,C]2 [A,C] | %11
 [A,C]2 [A,D] [G,D]2 [G,D] | [B,D]3 [A,D]3 | [G,D]3 [G,D]3 | [A,^C]6 | [F,^C]2 [A,C] B,2 B, | %16
 [B,D]2 [B,D] C2 [B,C] | [A,C]2 [F,C] [E,C]2 [F,C] | [B,,D]3 (C2 B,) | [F,A,]6 |] %20
V:4
 x6 | x6 | x6 | x6 | x6 | x6 | x6 | x6 | x6 | x6 | x6 | x6 | x6 | x6 | x6 | x3 B,2 B, | x3 C2 x | %17
 x6 | x3 C,3 | x6 |] %20

